X:532101
F:http://www.vwml.org/record/HAM/5/32/11%%VWML:HAM-5-32-11-0
T:Lads of Sweet Newbury, The
S:Mrs Marina Russell, Upwey coll. HED Hammond
O:England
A:Dorset
N:Transcribed from HAM-05-033.gif
F:HAM-05-32-10.abc
Z:EFDSS;PJHeadford
%%stretchlast 0
M:3/4
L:1/8
Q:3/4=45
K:Daeolian
DE|F2G2 A2&F2F2 G2|A>GG2G>A|B2c2B2|A4A2|d2d2d2&d2A2=B2|c2A2A2&d2A2A2| GFD2D2|D2z2D> E|F2F2F> G|A2G2GA|B2c3B|A4A2| d2d2A2|c2A2A2|GFD2D2|D4||!coda!d2"^or ends thus"d2d2|d2A2A2|
F2D2D2|D4||">An ending Mrs. R. seems to like. (H.E.D.H.)"y"_FEP"y|
W:[to left of title:] 509 [below, on a sticky label:] D.778 [and, right of that:] Mrs Russell, Upwey W:Transcribed from HAM-05-033.gif
